X: 24
T:Wooden Shoon, Bidford, Shakespeare MM
M:4/4
L:1/8
Q:1/4=120
A:Bidford
P:A(AB)4AC
K:C
P:A
gf|e2dc dcBA|G6gf| e2c2 c2d2|e2c2 c2de|
f2fg agfe|d2g2 g2ag|^f2d2 g2f2|g2G2 G2||
P:B
g2|g2fe defg|a2f2 f2e2|c2c2 A2d2|B2G2 G2e2|
A2B2 c4|B2c2 d4|
d2e2 f4|e2f2 g4|agfe defg|e2c2 c2 ||
P:C
g2|g2fe defg|a2f2 f2e2| c2c2 A2d2|B2G2 G2e2|
ABc2 Bcd2|def2 efg2| agfe defg|e2c2 c4 ||
